X: 816
T: Red Lion Hornpipe
B: jims roots
M:4/4
L:1/8
R: hornpipe
Q: 1/4=100
K:Bb
V:1 
F2 | "Bb"BFdB fdbf | dBAc BAGF | "Cm"GEDE CEcd | "F"ecdB BAGF |
"Bb"BFdB fdbf | dBAc BAGF | "Cm"GEDE CEcd | "F"ecAF "Bb"B2 :|
|: FE | "Bb"DB,FD BFdB | fbfd BAGF | "Gm"GBAc Bdfa | "C"bgf=e "F"f2((3fga) |
"Bb"bfdB "F"gecA | "Bb"dBec BAGF | "Cm"GEDE CEcd | "F"ecAc "Bb"B2 :|
% abcbook-tune_id 6298c2794ac52ef8e1da20aa


% abcbook-boost 0
% abcbook-tablature 
% abcbook-transpose 
% abcbook-lastupdated 1654178426811
% abcbook-soundfonts 
% abcbook-repeats 1


